status/24/battery-caution-symbolic.svg

<?xml version="1.0" encoding="UTF-8" standalone="no"?>
<svg
   xmlns:dc="http://purl.org/dc/elements/1.1/"
   xmlns:cc="http://creativecommons.org/ns#"
   xmlns:rdf="http://www.w3.org/1999/02/22-rdf-syntax-ns#"
   xmlns:svg="http://www.w3.org/2000/svg"
   xmlns="http://www.w3.org/2000/svg"
   version="1.1"
   width="24"
   height="24"
   id="svg3004">
  <defs
     id="defs3006" />
  <metadata
     id="metadata3009">
    <rdf:RDF>
      <cc:Work
         rdf:about="">
        <dc:format>image/svg+xml</dc:format>
        <dc:type
           rdf:resource="http://purl.org/dc/dcmitype/StillImage" />
        <dc:title />
      </cc:Work>
    </rdf:RDF>
  </metadata>
  <path
     style="color:#000000;fill:#d33636;fill-opacity:1;fill-rule:nonzero;stroke:none;stroke-width:4;marker:none;visibility:visible;display:inline;overflow:visible;enable-background:accumulate"
     d="M 6.25,9 C 6.1115,9 6,9.1115 6,9.25 l 0,5.5 C 6,14.8885 6.1115,15 6.25,15 l 1.5,0 C 7.8885,15 8,14.8885 8,14.75 L 8,9.25 C 8,9.1115 7.8885,9 7.75,9 z"
     id="rect3206"
     class="error" />
  <path
     d="m 20,11 c 0,-0.554 -0.446,-1 -1,-1 l -1,0 0,-2 C 18,7.446 17.554,7 17,7 L 5,7 C 4.446,7 4,7.446 4,8 l 0,8 c 0,0.554 0.446,1 1,1 l 12,0 c 0.554,0 1,-0.446 1,-1 l 0,-2 1,0 c 0.554,0 1,-0.446 1,-1 z m -1,0.5 0,1 c 0,0.277 -0.223,0.5 -0.5,0.5 l -0.5,0 0,-2 0.5,0 c 0.277,0 0.5,0.223 0.5,0.5 z m -2,-3 0,7 c 0,0.277 -0.223,0.5 -0.5,0.5 l -11,0 C 5.223,16 5,15.777 5,15.5 l 0,-7 C 5,8.223 5.223,8 5.5,8 l 11,0 C 16.777,8 17,8.223 17,8.5 z"
     id="rect2998"
     style="color:#bebebe;fill:#bebebe;fill-opacity:1;fill-rule:nonzero;stroke:none;stroke-width:1;marker:none;visibility:visible;display:inline;overflow:visible;enable-background:accumulate" />
</svg>

<svg xmlns="http://www.w3.org/2000/svg" viewBox="0 0 24 24"><path d="M6.25 9a.25.25 0 0 0-.25.25v5.5c0 .14.112.25.25.25h1.5a.25.25 0 0 0 .25-.25v-5.5A.25.25 0 0 0 7.75 9z" class="error" color="#000" fill="#d33636" overflow="visible"/><path d="M20 11c0-.554-.446-1-1-1h-1V8c0-.554-.446-1-1-1H5c-.554 0-1 .446-1 1v8c0 .554.446 1 1 1h12c.554 0 1-.446 1-1v-2h1c.554 0 1-.446 1-1zm-1 .5v1a.5.5 0 0 1-.5.5H18v-2h.5a.5.5 0 0 1 .5.5zm-2-3v7a.5.5 0 0 1-.5.5h-11a.5.5 0 0 1-.5-.5v-7a.5.5 0 0 1 .5-.5h11a.5.5 0 0 1 .5.5z" color="#bebebe" fill="#bebebe" overflow="visible"/></svg>
